X: 104
T: POLKA: Tom Mhic's No. 2
C: C: Trad.; S: ThZCh; Polca an Rí; Brendan Begley
C: Set Leaders: Oliushka, Anton, Sophie
Z: Anton Zille ed.; Bregolas at The Session
N: https://www.soundslice.com/slices/R1QCc/
N: https://thesession.org/members/26966/sets/76527
R: Polka
M: 2/4
L: 1/8
Q: 1/4=140
K: Dmaj
|:AB cd|ed c/d/c/B/|AB cd|e2 e2|
A>B cd|ed c>B|AB ce|1 de/d/ cB:||2 d2 d>f||
|:af ed|f2 e2|A>B cd|e2 ef/g/|
af ed|f2 eA|A>B ce|1 d2 d>f:|2 de/d/ cB|| A4||

